!!!OTL: Shehui zhuyi jinguangdao
!!!ARE: Asia, China,ÿQinghai Huzu
!! I, 235, 2)
!!!SCT: C2079
!!!YEM: Copyright 1995, estate of Helmut Schaffrath.
**kern
*ICvox
*Ivox
*M2/4
*k[b-]
*F:
{8a
8g
4a
=1
8g
8a
8g
8a
=2
8.cc
16dd
8.ff
16gg
=3
8dd
[4.cc
=4
4.cc]
8dd}
=5
{8.cc
16dd
8.ff
16gg
=6
8g
[4.a
=7
2a]}
=8
{8a
8g
4a
=9
8g
8a
8g
8a
=10
8.cc
16dd
8ff
16gg
16aa
=11
8dd
8cc
8cc
8dd
=12
4f
8.g
16f
=13
4.d
8c#}
=14
{8f
8g
8b-
8g
=15
2f}
==
!!!AGN: Shange, Honghualing
!! Tuzu
!!!ONB: ESAC (Essen Associative Code) Database: SENGANSU
!!!AMT: simple duple
!!!AIN: vox
!!!EED: Helmut Schaffrath
!!!EEV: 1.0
*-
!!!ONB: Tied note syntax fixed by Craig Sapp, 2004/05/03/
